Origami/64x64/apps/nitroshare.svg

<svg width="64" height="64" version="1" xmlns="http://www.w3.org/2000/svg">
 <path d="m35.824218 5.0026104c-1.718522 0.050408-3.33287 0.8354188-4.433594 2.1559272l-8.199218 9.8383704h-3.191406c-3.313571 3.31e-4 -5.999669 2.686027-6 5.999103v23.996408c3.31e-4 3.313076 2.686429 5.99877 6 5.999102h2v1.9997c0.0026 5.609292 7.016722 8.147502 10.609376 3.839268l8.199218-9.83837h3.191406c3.313572-3.32e-4 5.999668-2.686026 6-5.999102v-23.996408c-3.32e-4 -3.313076-2.686428-5.998771-6-5.999102h-2v-1.999701c-0.001098-3.3813986-2.795318-6.0939126-6.175782-5.9951956z" style="opacity:.2"/>
 <path d="m35.824218 4.0026116c-1.718522 0.050408-3.33287 0.8354188-4.433594 2.1559272l-8.199218 9.8383712h-3.191406c-3.313571 3.31e-4 -5.999669 2.686026-6 5.999102v23.996408c3.31e-4 3.313076 2.686429 5.99877 6 5.999102h2v1.9997c0.0026 5.609292 7.016722 8.147502 10.609376 3.839268l8.199218-9.83837h3.191406c3.313572-3.32e-4 5.999668-2.686026 6-5.999102v-23.996408c-3.32e-4 -3.313075-2.686428-5.99877-6-5.999102h-2v-1.9997002c-0.001098-3.3813992-2.795318-6.0939132-6.175782-5.9951962z" style="fill:#4f4f4f"/>
 <path d="m36 10-10 12h-5.9998v24h8v8l10-12h5.9998v-24h-8z" style="opacity:.3"/>
 <path d="m22 24.999999v14h6v-6l8 8h6v-14h-6v6l-8-8z" style="opacity:.2"/>
 <path d="m22 24v14h6v-6l8 8h6v-14h-6v6l-8-8z" style="fill:#ffffff"/>
 <path d="m35.824219 4.0019531c-1.718522 0.050408-3.33287 0.8357416-4.433594 2.15625l-8.199219 9.8378909h-3.191406c-3.313571 3.31e-4 -5.999669 2.686924-6 6v1c3.31e-4 -3.313076 2.686429-5.999669 6-6h3.191406l8.199219-9.8378909c1.100724-1.3205084 2.715072-2.105842 4.433594-2.15625 3.380464-0.098717 6.174683 2.6146948 6.175781 5.9960939v-1.0000001c-0.001098-3.3813992-2.795317-6.0948108-6.175781-5.9960938zm6.175781 7.9960939v1h2c3.313572 3.32e-4 5.999668 2.684972 6 5.998047v-1c-3.32e-4 -3.313075-2.686428-5.997715-6-5.998047h-2z" style="fill:#ffffff;opacity:.1"/>
</svg>

<svg xmlns="http://www.w3.org/2000/svg" width="64" height="64" version="1">
 <path style="opacity:0.2" d="m 35.824218,5.0026104 c -1.718522,0.050408 -3.33287,0.8354188 -4.433594,2.1559272 L 23.191406,16.996908 H 20 c -3.313571,3.31e-4 -5.999669,2.686027 -6,5.999103 v 23.996408 c 3.31e-4,3.313076 2.686429,5.99877 6,5.999102 h 2 v 1.9997 c 0.0026,5.609292 7.016722,8.147502 10.609376,3.839268 l 8.199218,-9.83837 H 44 c 3.313572,-3.32e-4 5.999668,-2.686026 6,-5.999102 V 18.996609 c -3.32e-4,-3.313076 -2.686428,-5.998771 -6,-5.999102 H 42 V 10.997806 C 41.998902,7.6164074 39.204682,4.9038934 35.824218,5.0026104 Z"/>
 <path style="fill:#4f4f4f" d="m 35.824218,4.0026116 c -1.718522,0.050408 -3.33287,0.8354188 -4.433594,2.1559272 L 23.191406,15.99691 H 20 c -3.313571,3.31e-4 -5.999669,2.686026 -6,5.999102 V 45.99242 c 3.31e-4,3.313076 2.686429,5.99877 6,5.999102 h 2 v 1.9997 c 0.0026,5.609292 7.016722,8.147502 10.609376,3.839268 l 8.199218,-9.83837 H 44 c 3.313572,-3.32e-4 5.999668,-2.686026 6,-5.999102 V 17.99661 c -3.32e-4,-3.313075 -2.686428,-5.99877 -6,-5.999102 H 42 V 9.9978078 C 41.998902,6.6164086 39.204682,3.9038946 35.824218,4.0026116 Z"/>
 <path style="opacity:0.3" d="M 36,10 26,22 h -5.9998 v 24 h 8 v 8 l 10,-12 H 44 V 18 h -8 z"/>
 <path style="opacity:0.2" d="m 22,24.999999 v 14 h 6 v -6 l 8,8 h 6 v -14 h -6 v 6 l -8,-8 z"/>
 <path style="fill:#ffffff" d="m 22,24 v 14 h 6 v -6 l 8,8 h 6 V 26 h -6 v 6 l -8,-8 z"/>
 <path style="opacity:0.1;fill:#ffffff" d="M 35.824219 4.0019531 C 34.105697 4.0523611 32.491349 4.8376947 31.390625 6.1582031 L 23.191406 15.996094 L 20 15.996094 C 16.686429 15.996425 14.000331 18.683018 14 21.996094 L 14 22.996094 C 14.000331 19.683018 16.686429 16.996425 20 16.996094 L 23.191406 16.996094 L 31.390625 7.1582031 C 32.491349 5.8376947 34.105697 5.0523611 35.824219 5.0019531 C 39.204683 4.9032361 41.998902 7.6166479 42 10.998047 L 42 9.9980469 C 41.998902 6.6166477 39.204683 3.9032361 35.824219 4.0019531 z M 42 11.998047 L 42 12.998047 L 44 12.998047 C 47.313572 12.998379 49.999668 15.683019 50 18.996094 L 50 17.996094 C 49.999668 14.683019 47.313572 11.998379 44 11.998047 L 42 11.998047 z"/>
</svg>
